X: 306
T: Zhenzhu daojun lian
L: 1/8
M: 2/4
K: F
d2d2 [I:setbarnb 1]| 
e f c e | 
d4- | 
d4 | 
f3d | 
c2A c | 
d> f B A | 
G4- | 
G4 | 
A c A c | 
d f d c | 
A2c A | 
G A c E | 
D4- | 
D4 | 
G3D | 
G D G c | 
A> G F D | 
G4- | 
G4 | 
A c A c | 
d f d c | 
A2c3/ A/ | 
G A c E | 
D4- | 
D4 | 
G3D | 
G D G c | 
A G F D | 
G4- | 
G4 |]

@@@ Tune index: 9180
